!!!SOCIAL_FUNCTION:	dream songs
!!!PDT:	1932
!!!OTL: No_57_Dream_of_Domestic_Cattle.krn
!!!REG: Wisconsin
!!!LANG: Non-Tone
!!!LING_GROUP: Algonquin
**kern
*staff1
=1-
*clefF4
*k[f#c#]
*M3/4
2r
8r
8A\
=2!|:
4d\
12d\L
12B\
12A\J
4A\
=3||
*M2/4
12B\L
12A\
12A\J
8.A\L
16A\Jk
=4||
*M3/4
2A\
16E\
16r
16A\LL
16A\JJ
=5
4d\
12d\L
12B\
12A\J
4A\
=6||
*M2/4
12B\L
12A\
12A\J
8A\L
8A\J
=7||
*M3/4
2A\
8r
8E\
=8
4A\
12A\L
12F#\
12E\J
4D\
=9||
*M2/4
12E\L
12D\
12D\J
8D\L
8D\J
=10||
*M3/4
2D\
8r
8D\
=11
4E\
12E\L
12D\
12BB\J
4AA/
=12||
*M2/4
12BB/L
12AA/
12AA/J
8AA/L
8AA/J
=13
2AA/
=14||
*M3/4
4AA/
8r
8A\
4A\
=15:|!
*M2/4
4AA/
4r
==
*-
